X: 242
M: 2/4
L: 1/16
K: Amix
|:\
|:\
e3dc2c2 | a2a2 e4 | edcd B2B2 | edcd B4 |\
e3dc2c2 | a2a2 e4 | Bfed cBA^G | A2A2 A4 :|


